X: 438
T: Ose Shalom [C]
M: 2/4
L: 1/8
Z: 2009 John Chambers <jc:trillian.mit.edu>
S: printed MS of unknown origin
K: C
|:"C"CE DC |   E E3   |      CE     DC |      E2 E2 \
|    CE DC |   E E2 C |"(Am)"EE "G7"DD | "C"  C4    \
:|"C"G2 EG | "F"A2 FA | "C"  G4-       |"(G7)"G2 z2 |
| "C"G2 EG | "F"A2 FA | "C"  G4-       |"(G7)"G2 zc |\
|"Am"c2 Ac | "G"B2 GB | "F"  A2 FA     | "G7" G4    \
| "C"G2 EG | "F"A2 FA | "C"  G4-       |"(G7)"G2 z2 |]
